X:14
T:Afindrafindrao
C:Ralama Productions
N:Danse Malgache
Z:Transcrit et/ou corrig par Michel BELLON - 2006-04-09
Z:Pour toute observation mailto:galouvielle@free.fr
M:12/8
%%staves (1 2) 3
Q:1/4=100
L:1/8
K:C
V:1
c3/2d/ |\
e e3/2f/ d d3/2e/ c c3/2d/ B B3/2c/ |F FG AB c2 c3/2A/ G G3/2A/ |F FG AB c2 d3/2B/ A d3/2B/ |
G GA Bc d2 e3/2d/ c d3/2B/ | G ff ee d2 e3/2d/ c d3/2B/ |F FG AB c2 c3/2A/ G c3/2A/ |
F FG AB c2 d3/2B/ A d3/2B/ | G Gc d cd e e3/2c/ d d3/2B/ |1 c c3/2c/ B B3/2B/ cc c2 c3/2d/ |
ge3/2c/ fd3/2B/ ec3/2A/ d B2 |FFG ABc ccc Gc3/2A/ |FFG AB c2 d2 AdB |
GGA Bcd Ge3/2d/ c d2 |GfG eGd Ge3/2d/ c d2 |FFG ABc Gcc G c2 |
FFG ABc Gd3/2c/ AdB |GGc dcd ee3/2c/ dd3/2B/ |cc3/2c/ BB3/2B/ c c2 C2 z/ D/ |
EE3/2F/ DD3/2E/ CC3/2D/ B,B,3/2C/ |FFG ABc cc3/2A/ G c2 |FFG ABc cd3/2B/ A d2 |
GGA Bcc ce3/2d/ c d2 |G,FG, EG,D G,E3/2D/ C D2 |F,F,G, A,B, C2 C3/2A,/ A,G,3/2A,/ |
F,F,G, A,B,C CD3/2B,/ A,A,3/2B,/ |G,G,C DCD EE3/2C/ D D2 |CC3/2C/ B,G,3/2B,/ C C2 c2 z/ d/ |
V:2
z2 | c c>f B B>e A A>d G G>c | F FG FG A2 A>A G G>A | F FG FG A2 B>B A A>B |
G GA GA B2 c>B A B>B | G dd cc B2 c>B A B>B | F FG FG A2 A>A G G>A |
F FG FG A2 B>B A A>B G Gc Gc Ge G2 F F>B | E E>c F F>B E E2 |
V:3
z12 |C c2 D d2 E e2 C3 |F c2 c2 c2 c2 c c2 |F c2 c2 E2 e2 D d2 |G4 G2 G6 |G4 G2 G6 |F4 F2 F6 |F4 E2 E2 D4 |G4 G2 G2 G,4 |C2 G,4 C C2 z3 |C c2 D d2 d2 z2 C2 |F4 F2 F2 z2 C2 |G4 G2 G2 D2 z2 |G4 G2 G2 z2 D2 |
G2 z8- z2 |F c2 c2 c2 c2 c D2 |G2 z3 G2 z2 D2 z |G e2 e2 G2 G2 G, G2 |C c2 G, G2 C C2 z3 |C, C2 D, D2 E, E2 C,2 F- |F4 F2 F6 |F F2 E2 z2 E2 D2 G- |G4 G2 G6 |G,2 z8 C,2 |F,2 z8- z2 |F,2 F,2 E,2 z3 D,2 G,- |
G,2 G,2 G,2 G,2 G,4 |C,2 G,4 C,2 C,2 z2 |C c2 D d2 E e2 C3 |F c2 c2 c2 c2 c c2 |F c2 c2 E2 e2 D d2 |G4 G2 G6 |G4 G2 G6 |F4 F2 F6 |F4 E2 E2 D4 |G4 G2 G2 G,4 |C2 G,4 C C2 z3 |C c2 D d2 d2 z2 C2 |F4 F2 F2 z2 C2 |
G4 G2 G2 D2 z2 |G4 G2 G2 z2 D2 |G2 z8- z2 |F c2 c2 c2 c2 c D2 |G2 z3 G2 z2 D2 z |G e2 e2 G2 G2 G, G2 |C c2 G, G2 C C2 z3 |C, C2 D, D2 E, E2 C,2 F- |F4 F2 F6 |F F2 E2 z2 E2 D2 G- |G4 G2 G6 |G,2 z8 C,2 |
F,2 z8- z2 |F,2 F,2 E,2 z3 D,2 G,- |G,2 G,2 G,2 G,2 G,4 |C,2 G,4 C,2 C,2 z2 |C c2 D d2 E e2 C3 |F c2 c2 c2 c2 c c2 |F c2 c2 E2 e2 D d2 |G4 G2 G6 |G4 G2 G6 |F4 F2 F6 |F4 E2 E2 D4 |G4 G2 G2 G,4 |C2 G,4 C C2 |]
V:2
z12 | ee3/2f/ dd3/2e/ cc3/2d/ BB3/2c/ |FFG AB c2 c3/2A/ GG3/2A/ |FFG AB c2 d3/2B/ Ad3/2B/ |GGA Bc d2 e3/2d/ cd3/2B/ |
Gff ee d2 e3/2d/ cd3/2B/ |FFG AB c2 c3/2A/ Gc3/2A/ |FFG AB c2 d3/2B/ Ad3/2B/ |GGc dcd ee3/2c/ dd3/2B/ |cc3/2c/ BB3/2B/ c c2 c2 z/ e/ |
ee3/2c/ fd3/2B/ ec3/2A/ d B2 |FFG ABc ccc Gc3/2A/ |FFG AB c2 d2 AdB |
GGA Bcd Ge3/2d/ c d2 |GfG eGd Ge3/2d/ c d2 |FFG ABc Gcc G c2 |FFG ABc Gd3/2c/ AdB |GGc dcd ee3/2c/ dd3/2B/ |cc3/2c/ BB3/2B/ c c2 C2 z/ D/ |
EE3/2F/ DD3/2E/ CC3/2D/ B,B,3/2C/ |FFG ABc cc3/2A/ G c2 |FFG ABc cd3/2B/ A d2 |
GGA Bcc ce3/2d/ c d2 |G,FG, EG,D G,E3/2D/ C D2 |F,F,G, A,B, C2 C3/2A,/ A,G,3/2A,/ |F,F,G, A,B,C CD3/2B,/ A,A,3/2B,/ |G,G,C DCD EE3/2C/ D D2 |CC3/2C/ B,G,3/2B,/ C C2 c2 z/ d/ |
ee3/2f/ dd3/2e/ cc3/2d/ BB3/2c/ |FFG AB c2 c3/2A/ GG3/2A/ |FFG AB c2 d3/2B/ Ad3/2B/ |GGA Bc d2 e3/2d/ cd3/2B/ |
Gff ee d2 e3/2d/ cd3/2B/ |FFG AB c2 c3/2A/ Gc3/2A/ |FFG AB c2 d3/2B/ Ad3/2B/ |GGc dcd ee3/2c/ dd3/2B/ |cc3/2c/ BB3/2B/ ccc |]
%%footer $D   Galouvielle-MBe 2006 \n--- (--)
